fs/calendar_work_week_24_filled.svg

<svg viewBox="0 0 24 24" fill="none" xmlns="http://www.w3.org/2000/svg" height="1em" width="1em">
  <path d="M8.5 11V8.5H15.5V11H8.5ZM17.75 21C19.5449 21 21 19.5449 21 17.75V6.25C21 4.45507 19.5449 3 17.75 3H6.25C4.45507 3 3 4.45507 3 6.25V17.75C3 19.5449 4.45507 21 6.25 21H17.75ZM7.75 7H16.25C16.6642 7 17 7.33579 17 7.75V11.75C17 12.1642 16.6642 12.5 16.25 12.5H7.75C7.33579 12.5 7 12.1642 7 11.75V7.75C7 7.33579 7.33579 7 7.75 7Z" fill="#212121"/>
</svg>

<svg viewBox="0 0 24 24" fill="none" xmlns="http://www.w3.org/2000/svg" height="1em" width="1em">
  <path d="M8.5 11V8.5h7V11h-7Zm9.25 10A3.25 3.25 0 0 0 21 17.75V6.25A3.25 3.25 0 0 0 17.75 3H6.25A3.25 3.25 0 0 0 3 6.25v11.5A3.25 3.25 0 0 0 6.25 21h11.5Zm-10-14h8.5a.75.75 0 0 1 .75.75v4a.75.75 0 0 1-.75.75h-8.5a.75.75 0 0 1-.75-.75v-4A.75.75 0 0 1 7.75 7Z" fill="#212121"/>
</svg>
